X:1
T:Title
%%score { ( 1 4 ) | ( 2 3 ) }
L:1/8
M:6/4
K:Ab
V:1 treble nm="Grand Piano"
V:4 treble 
V:2 bass 
V:3 bass 
V:1
 z6 z4[Q:1/4=100] [A,CE]2 | [A,CE]4 [A,CE]2 [A,CE]4 [CEA]2 | c4 B2 B4 [Ec]2 | %3
 [F,A,DF]4 [A,DF]2 [DFA]4 [DEG]2 | [CEA]6- [CEA]4 [CEA]2 | [DFA]2 [EG]2 [DF]2 [CE]4 [Ac]2 | %6
 [GB]2 A2 F2 E4 E2 | E4 E2 A4 A2 | G6- G4 [CE]2 | z2[K:bass] C,2 E2[K:treble] E2 [EA]2 [Ec]2 | %10
[M:5/4] G4 z2 z4[Q:1/4=98][Q:1/4=97][Q:1/4=95][Q:1/4=94][Q:1/4=92][Q:1/4=91][Q:1/4=89][Q:1/4=88][Q:1/4=86][Q:1/4=84][Q:1/4=83][Q:1/4=81][Q:1/4=80][Q:1/4=78][Q:1/4=77] |] %11
V:2
 z6 z4 A,,2 | A,,2 C,2 F,2 E,2 C,2 A,,2 | [E,A,E]4 [E,G,E]2 [E,G,E]4 [C,A,]2 | D,4 D,2 B,,4 E,2 | %4
 A,,6- A,,4 A,,2 | z2 A,2 A,2 [A,,A,]4 [A,,A,]2 | z2 F2 [F,A,D]2 [A,C]4 [A,C]2 | %7
 [G,B,]4 [G,B,]2 [F,B,=D]4 [F,B,D]2 | [E,B,E]6- [E,B,E]4 [A,,A,]2 | z6 .[E,C]6 | %10
[M:5/4] z2[K:treble] d2[K:bass] E,2 A,,4 |] %11
V:3
 x12 | x12 | x12 | x12 | x12 | .A,,6 z6 | .[D,A,]6 z6 | x12 | x12 | %9
 .[A,,A,]4 [F,A,C]2 A,2- [C,A,]2 [A,,A,]2 |[M:5/4] [E,B,]4[K:treble][K:bass] z2 z4 |] %11
V:4
 x12 | x12 | x12 | x12 | x12 | x12 | x12 | x12 | x12 | .[CE]6[K:bass][K:treble] z6 | %10
[M:5/4] e2 z2 [DEB]2 [CEA]4 |] %11

